!!!COM: Music21
!!!OTL: Alalá de Andabao
!!!OMV: pezas_alalas_alala-de-andabao_alala-de-andabao-partitura.musicxml
**kern
*part2
*staff2
*I"Gaita
*I'Bag
*clefG^2
*k[]
*M6/8
=1
!
*MM180
!
4.r
32%3ccL
32%3b
32%3cc
32%3ddJ
=||
8eeL
8cc
8eeJ
8ffL
8dd
8ffJ
=
8eeL
8cc
8eeJ
8aaL
8ff
8aaJ
=
8ggL
8ee
8ggJ
8ffL
8dd
8ffJ
=
4.ee
32%3cc^L
32%3b
32%3cc
32%3ddJ
=
8eeL
8cc
8eeJ
8ffL
8dd
8ffJ
!!linebreak:original
=
8eeL
8cc
8eeJ
8ddL
8b
8ddJ
=
32%3ccL
32%3b
32%3cc
32%3ddJ
32%3eeL
32%3dd
32%3cc
32%3bJ
=
4cc
8r
32%3cc^L
32%3b
32%3cc
32%3ddJ
=||
8eeL
8cc
8eeJ
8ffL
8dd
8ffJ
=
8eeL
8cc
8eeJ
8aaL
8ff
8aaJ
=
8ggL
8ee
8ggJ
8ffL
8dd
8ffJ
!!linebreak:original
=
4.ee
32%3cc^L
32%3b
32%3cc
32%3ddJ
=
8eeL
8cc
8eeJ
8ffL
8dd
8ffJ
!!linebreak:original
=
8eeL
8cc
8eeJ
8ddL
8b
8ddJ
=
32%3ccL
32%3b
32%3cc
32%3ddJ
32%3eeL
32%3dd
32%3cc
32%3bJ
=
8cc
8r
8cc
8cc^L
8b
8ccJ
=||
8ddL
8cc
8ddJ
8ffL
8aa
8ggJ
=
8eeL
8dd
8ccJ
8cc^L
8b
8ccJ
!!pagebreak:original
=
8ddL
8cc
8ddJ
8ffL
8aa
8ggJ
=
4ee
8cc
8cc^L
8b
8ccJ
=
32%3ddL
32%3cc
32%3dd
32%3eeJ
32%3ffL
32%3aa
32%3gg
32%3ffJ
=
32%3eeL
32%3dd
32%3cc
32%3eeJ
32%3ddL
32%3cc
32%3dd
32%3ffJ
=
32%3eeL
32%3aa
32%3gg
32%3ffJ
32%3eeL
32%3dd
32%3cc
32%3bJ
!!pagebreak:original
=
8cc
8r
8cc
8ccL
8b
8ccJ
=||
8ddL
8cc
8ddJ
8ffL
8aa
8ggJ
=
8eeL
8dd
8ccJ
8cc^L
8b
8ccJ
!!linebreak:original
=
8ddL
8cc
8ddJ
8ffL
8aa
8ggJ
=
4ee
8cc
8cc^L
8b
8ccJ
=
32%3ddL
32%3cc
32%3dd
32%3eeJ
32%3ffL
32%3aa
32%3gg
32%3ffJ
=
32%3eeL
32%3dd
32%3cc
32%3eeJ
32%3ddL
32%3cc
32%3dd
32%3ffJ
=
32%3eeL
32%3aa
32%3gg
32%3ffJ
32%3eeL
32%3dd
32%3cc
32%3bJ
!!pagebreak:original
=
8cc
8r
8cc
8ccL
8b
8ccJ
=||
4cc
8r
32%3ccL
32%3b
32%3cc
32%3ddJ
=||
8eeL
8cc
8eeJ
8ffL
8dd
8ffJ
=
8eeL
8cc
8eeJ
8aaL
8ff
8aaJ
=
8ggL
8ee
8ggJ
8ffL
8dd
8ffJ
=
4.ee
32%3cc^L
32%3b
32%3cc
32%3ddJ
!!linebreak:original
=
8eeL
8cc
8eeJ
8ffL
8dd
8ffJ
=
8eeL
8cc
8eeJ
8ddL
8b
8ddJ
=
32%3ccL
32%3b
32%3cc
32%3ddJ
32%3eeL
32%3dd
32%3cc
32%3bJ
=||
*M3/4
2cc;
!
*MM60
!
4r
.
=
2.r
.
.
.
=||
*M2/4
2r
.
.
.
!!linebreak:original
=||
*M3/4
2.r
.
.
.
.
=
2.r
.
.
.
=
2r
8ccL
8eeJ
=
4.ff
8dd
8eeL
8ccJ
=||
*M2/4
8ddL
8ccJ
8eeL
8eeJ
=
4.ff
8ee
=
4.ee
8cc
!!linebreak:original
=
4.dd
24ddLL
24ee
24ddJJ
!!pagebreak:original
=||
*M3/4
[2cc
8ccL]
32ccJkk
16.r
=
2.r
.
.
.
=
2.r
.
.
.
=||
*M2/4
4r
.
8eeL
8eeJ
=
4.ff
8ee
=
4.ee
8cc
=
4.dd
24ddLL
24ee
24ddJJ
!!pagebreak:original
=||
*M3/4
[2cc
8ccL]
32ccJkk
32r
16r
==
*-
!!!system-decoration: s1,s2,s3
